X:1
T:Hanover, 10.10.11.11
T:O Worship the King
T:William Croft, 1708
T:(Hanover)
T:Robert Grant
T:From Hymnary.org (based on a score from the Cyber Hymnal) Public Domain ST. MARY'S CATHEDRAL KUALA LUMPUR, 10.30 AM CHOIR
Z:From Hymnary.org (based on a score from the Cyber Hymnal)
Z:Public Domain
Z:ST. MARY'S CATHEDRAL KUALA LUMPUR, 10.30 AM CHOIR
%%score ( 1 2 ) ( 3 4 )
L:1/8
M:3/4
K:G
V:1 treble nm="Organ"
V:2 treble 
V:3 bass nm="Organ"
V:4 bass 
V:1
 [B,D]2 | [DG]2 [DG]2 [DA]2 | [DB]4 [Dd]2 | [EG]2 [EA]2 [DF]2 | [DG]4 || [DA]2 | %6
w: 1.~O|wor- ship the|King, all|glo- rious a-|bove;|O|
w: 2.~O|tell of his|might, O|sing of his|grace,|whose|
w: 3.~The|earth with its|store of|won- ders un-|told,|Al-|
w: 4.~Thy|boun- ti- ful|care what|tongue can re-|cite?|It|
w: 5.~Frail|chil- dren of|dust, and|fee- ble as|frail,|in|
w: 6.~O|mea- sure- less|might, in-|ef- fa- ble|love,|while|
 [DB]2 [DA]2 (D^C) | [DF]4 [DG]2 | [DA]2 (GF) [^CE]2 | D4 || [^DF]2 | [EG]2 [FA]2 [FB]2 | %12
w: grate- ful- ly *|sing his|pow'r and * his|love;|our|shield and de-|
w: robe is the *|light, whose|ca- no- * py|space;|his|cha- riots of|
w: migh- ty thy *|pow'r hath|foun- ded * of|old;|hath|sta- blished it|
w: breathes in the *|air, it|shines in * the|light;|it|streams from the|
w: thee do we *|trust, nor|find thee * to|fail;|thy|mer- cies how|
w: an- gels de- *|light to|hymn thee * a-|bove,|thy|hum- bler cre-|
 [EG]2 E2 [Dc]2 | [DB]2 [DA]2 [^CG]2 | [Dd]4 || D2 | E2 [CF]2 [DG]2 | [DA]2 D2 [DB]2 | %18
w: fen- der, the|An- cient of|Days,|pa-|vi- lioned in|splen- dour and|
w: wrath the deep|thun- der clouds|form,|and|dark is his|path on the|
w: fast by a|change- less de-|cree,|and|round it hath|cast, like a|
w: hilss it de-|scends to the|plain,|and|sweet- ly dis-|tils in the|
w: ten- der, how|firm to the|end,|Our|Ma- ker, De-|fen- der, Re-|
w: a- tion, though|fee- ble their|lays,|with|true a- do-|ra- tion shall|
 [CE]2 [EA]2 (DC) | [B,G]4 |] %20
w: gir- ded with *|praise.|
w: wings of the *|storm.|
w: man- tle the *|sea.|
w: dew and the *|rain.|
w: dee- mer, and *|Friend.|
w: sing to thy *|praise.|
V:2
 x2 | x6 | x6 | x6 | x4 || x2 | x4 G2 | x6 | x2 D2 x2 | D4 || x2 | x6 | x2 E2 x2 | x6 | x4 || D2 | %16
 D2 x4 | x6 | x4 F2 | x4 |] %20
V:3
 [G,,G,]2 | [G,,B,]2 [B,,G,]2 [D,F,]2 | G,4 [F,A,]2 | [E,B,]2 [C,C]2 [D,A,]2 | [G,,B,]4 || %5
 [D,F,]2 | G,2 [F,A,]2 (B,G,) | [D,A,]4 [B,,B,]2 | [F,,A,]2 (B,A,) [A,,G,]2 | [D,F,]4 || [B,,B,]2 | %11
 [E,B,]2 [E,C]2 [^D,B,]2 | [E,B,]2 [E,G,]2 [F,A,]2 | G,2 [F,A,]2 (A,G,) | [D,F,]4 || [B,,B,]2 | %16
 [C,B,]2 [D,A,]2 [E,G,]2 | [D,F,]2 [F,A,]2 G,2 | [C,G,]2 [A,,C]2 [D,A,]2 | [G,,G,]4 |] %20
V:4
 x2 | x6 | G,4 x2 | x6 | x4 || x2 | G,2 E,2 x2 | x6 | x2 G,,2 x2 | x4 || x2 | x6 | x6 | %13
 G,2 E,2 D,2 | x4 || x2 | x6 | x4 G,2 | x6 | x4 |] %20

